Indoor_Plant.svg

<svg width="29" height="44" viewBox="0 0 29 44" fill="none" xmlns="http://www.w3.org/2000/svg">
<path d="M8.9606 5.91029L8.9606 5.91028L7.84103 4.79071L7.84103 4.79071C7.70678 4.65647 7.5247 4.58105 7.33485 4.58105C7.145 4.58105 6.96292 4.65647 6.82868 4.79072C6.69443 4.92497 6.61901 5.10704 6.61901 5.2969C6.61902 5.48675 6.69443 5.66883 6.82868 5.80307C6.82868 5.80307 6.82868 5.80307 6.82868 5.80308L7.94824 6.92263C8.01471 6.9891 8.09363 7.04183 8.18048 7.07781C8.26732 7.11378 8.36041 7.1323 8.45442 7.1323C8.54842 7.1323 8.64151 7.11379 8.72836 7.07781C8.81521 7.04184 8.89412 6.98911 8.9606 6.92264C9.02707 6.85617 9.0798 6.77726 9.11577 6.69041C9.15175 6.60356 9.17027 6.51047 9.17027 6.41646C9.17027 6.32246 9.15175 6.22937 9.11578 6.14252C9.0798 6.05567 9.02708 5.97676 8.9606 5.91029Z" fill="#285A43" stroke="#285A43" stroke-width="0.445322"/>
<path d="M20.7233 5.91037L20.7233 5.91036L21.842 4.79137C21.9082 4.72434 21.9869 4.67101 22.0736 4.63444C22.1607 4.59774 22.2542 4.57864 22.3487 4.57825C22.4432 4.57786 22.5368 4.59618 22.6242 4.63216C22.7116 4.66813 22.791 4.72106 22.8578 4.78787C22.9246 4.85468 22.9775 4.93406 23.0135 5.02143C23.0495 5.10881 23.0678 5.20244 23.0675 5.29693C23.0671 5.39142 23.048 5.4849 23.0113 5.57198C22.9748 5.65876 22.9214 5.73748 22.8544 5.80361L21.7358 6.92239C21.7358 6.92241 21.7358 6.92244 21.7358 6.92246L21.7357 6.92257L21.5782 6.76514C21.5324 6.81101 21.4781 6.84739 21.4182 6.87219C21.3584 6.89698 21.2942 6.90971 21.2294 6.90963L20.7233 5.91037ZM20.7233 5.91037C20.6232 6.01048 20.555 6.13802 20.5274 6.27686C20.4998 6.4157 20.514 6.55961 20.5682 6.69039C20.6223 6.82118 20.7141 6.93296 20.8318 7.01162C20.9494 7.09028 21.0878 7.13227 21.2294 7.13229L20.7233 5.91037Z" fill="#285A43" stroke="#285A43" stroke-width="0.445322"/>
<path d="M23.8752 13.5198H26.24C26.4299 13.5198 26.6119 13.4444 26.7462 13.3101C26.8804 13.1759 26.9558 12.9938 26.9558 12.804C26.9558 12.6141 26.8804 12.432 26.7462 12.2978C26.6119 12.1635 26.4299 12.0881 26.24 12.0881H23.8752C23.6854 12.0881 23.5033 12.1635 23.3691 12.2978C23.2348 12.432 23.1594 12.6141 23.1594 12.804C23.1594 12.9938 23.2348 13.1759 23.3691 13.3101C23.5033 13.4444 23.6854 13.5198 23.8752 13.5198Z" fill="#285A43" stroke="#285A43" stroke-width="0.445322"/>
<path d="M3.44384 13.5198H5.80862C5.99847 13.5198 6.18054 13.4444 6.31478 13.3101C6.44902 13.1759 6.52444 12.9938 6.52444 12.804C6.52444 12.6141 6.44902 12.432 6.31478 12.2978C6.18054 12.1635 5.99847 12.0881 5.80862 12.0881H3.44384C3.254 12.0881 3.07192 12.1635 2.93768 12.2978C2.80344 12.432 2.72802 12.6141 2.72802 12.804C2.72802 12.9938 2.80344 13.1759 2.93768 13.3101C3.07193 13.4444 3.254 13.5198 3.44384 13.5198Z" fill="#285A43" stroke="#285A43" stroke-width="0.445322"/>
<path d="M14.8419 4.48647C15.0318 4.48647 15.2138 4.41105 15.3481 4.27681C15.4823 4.14257 15.5577 3.96049 15.5577 3.77065V1.40588C15.5577 1.21603 15.4823 1.03396 15.3481 0.899718C15.2138 0.765475 15.0318 0.690059 14.8419 0.690059C14.6521 0.690059 14.47 0.765475 14.3358 0.899718C14.2015 1.03396 14.1261 1.21603 14.1261 1.40588V3.77065C14.1261 3.96049 14.2015 4.14257 14.3358 4.27681C14.47 4.41105 14.6521 4.48647 14.8419 4.48647Z" fill="#285A43" stroke="#285A43" stroke-width="0.445322"/>
<path d="M8.81659 12.8042L8.81659 12.8038C8.81604 11.87 9.03257 10.9487 9.44909 10.1129C9.86561 9.27708 10.4707 8.5495 11.2166 7.98762C11.9626 7.42574 12.8289 7.04493 13.7472 6.87526C14.6655 6.70559 15.6107 6.7517 16.5082 7.00996C17.4056 7.26821 18.2307 7.73154 18.9184 8.36336C19.6061 8.99518 20.1375 9.7782 20.4707 10.6506C20.8039 11.523 20.9297 12.4609 20.8383 13.3903C20.7547 14.2395 20.4918 15.0604 20.068 15.799L15.2691 12.2296L15.2691 12.2296C15.1456 12.1377 14.9958 12.0881 14.8419 12.0881C14.688 12.0881 14.5382 12.1377 14.4147 12.2296L14.4147 12.2296L9.61546 15.7992C9.09159 14.8896 8.81534 13.8568 8.81659 12.8042ZM28.4598 22.0407L21.2223 16.6575C21.8785 15.5728 22.2479 14.3375 22.294 13.0683C22.3426 11.7296 22.0297 10.4026 21.3882 9.22663C20.7466 8.05068 19.8002 7.06924 18.6483 6.38548C17.4963 5.70172 16.1815 5.34088 14.8419 5.34088C13.5024 5.34088 12.1875 5.70172 11.0356 6.38548C9.88372 7.06924 8.93727 8.05068 8.29574 9.22663C7.65421 10.4026 7.3413 11.7296 7.38989 13.0683C7.43596 14.3375 7.80537 15.5728 8.46156 16.6575L1.2241 22.0407C1.13454 22.1073 1.0618 22.1939 1.01169 22.2937C0.961573 22.3934 0.935477 22.5035 0.935481 22.6151V42.8513C0.935481 43.0412 1.0109 43.2232 1.14514 43.3575C1.27938 43.4917 1.46145 43.5671 1.6513 43.5671H28.0326C28.2224 43.5671 28.4045 43.4917 28.5387 43.3575C28.673 43.2232 28.7484 43.0412 28.7484 42.8513V22.6151C28.7484 22.5035 28.7223 22.3934 28.6722 22.2937C28.6221 22.1939 28.5493 22.1073 28.4598 22.0407ZM27.3167 42.1355H2.36713V22.9748L14.8419 13.6961L27.3168 22.9748L27.3167 42.1355Z" fill="#285A43" stroke="#285A43" stroke-width="0.445322"/>
<path d="M9.05509 25.7884H9.05486H8.61297C8.42312 25.7884 8.24105 25.8638 8.10681 25.9981C7.97257 26.1323 7.89715 26.3144 7.89715 26.5042L7.89715 26.9461L7.89715 26.9464C7.89921 28.6611 8.57773 30.3057 9.78533 31.5229C10.941 32.6879 12.492 33.3714 14.126 33.4419V36.6217C12.0608 36.7418 10.0598 37.3913 8.3164 38.5094L8.31625 38.5095C8.15652 38.6121 8.04409 38.774 8.0037 38.9595C7.96331 39.145 7.99826 39.3389 8.10087 39.4986C8.20348 39.6584 8.36533 39.7708 8.55084 39.8112C8.73623 39.8516 8.93005 39.8167 9.08972 39.7142C10.8069 38.615 12.803 38.0309 14.8419 38.0309C16.8803 38.0309 18.8761 38.6148 20.593 39.7136C20.6718 39.7651 20.76 39.8006 20.8525 39.818C20.9455 39.8355 21.041 39.8344 21.1336 39.8147C21.2261 39.795 21.3139 39.7572 21.3917 39.7034C21.4696 39.6496 21.536 39.5809 21.5871 39.5013C21.6383 39.4217 21.6731 39.3327 21.6896 39.2396C21.7062 39.1464 21.7041 39.0509 21.6834 38.9585C21.6628 38.8662 21.6241 38.7788 21.5695 38.7016C21.5152 38.6246 21.4461 38.5591 21.3664 38.5089C19.6232 37.3911 17.6226 36.7417 15.5577 36.6217V33.4419C17.1917 33.3714 18.7426 32.6879 19.8983 31.5229C21.1059 30.3056 21.7844 28.6611 21.7865 26.9464V26.9461V26.5042C21.7865 26.3144 21.7111 26.1323 21.5768 25.9981C21.4426 25.8638 21.2605 25.7884 21.0707 25.7884L20.6288 25.7884L20.6285 25.7884C19.3497 25.7897 18.0995 26.1676 17.0339 26.8748C16.1033 27.4924 15.3495 28.3375 14.8418 29.3263C14.3341 28.3375 13.5803 27.4924 12.6497 26.8748C11.5842 26.1676 10.334 25.7897 9.05509 25.7884ZM10.8157 30.5304C9.93209 29.6467 9.40734 28.4704 9.33688 27.2282C10.5791 27.2986 11.7554 27.8234 12.6391 28.707C13.5227 29.5906 14.0474 30.7669 14.1179 32.0092C12.8757 31.9387 11.6993 31.414 10.8157 30.5304ZM17.0446 28.707C17.9282 27.8234 19.1045 27.2986 20.3468 27.2282C20.2763 28.4704 19.7515 29.6467 18.8679 30.5304C17.9843 31.414 16.8079 31.9387 15.5657 32.0092C15.6362 30.7669 16.1609 29.5906 17.0446 28.707Z" fill="#285A43" stroke="#285A43" stroke-width="0.445322"/>
</svg>

<?xml version="1.0" encoding="utf-8"?>
<!-- Generator: Adobe Illustrator 27.5.0, SVG Export Plug-In . SVG Version: 6.00 Build 0)  -->
<svg version="1.1" id="Calque_1" xmlns="http://www.w3.org/2000/svg" xmlns:xlink="http://www.w3.org/1999/xlink" x="0px" y="0px"
	 viewBox="0 0 29 44" style="enable-background:new 0 0 29 44;" xml:space="preserve">
<style type="text/css">
	.st0{fill:#FFFFFF;}
</style>
<path class="st0" d="M9,5.9L9,5.9L7.8,4.8l0,0C7.7,4.7,7.5,4.6,7.3,4.6C7.1,4.6,7,4.7,6.8,4.8C6.7,4.9,6.6,5.1,6.6,5.3
	c0,0.2,0.1,0.4,0.2,0.5c0,0,0,0,0,0l1.1,1.1C8,7,8.1,7,8.2,7.1c0.1,0,0.2,0.1,0.3,0.1c0.1,0,0.2,0,0.3-0.1C8.8,7,8.9,7,9,6.9
	C9,6.9,9.1,6.8,9.1,6.7c0-0.1,0.1-0.2,0.1-0.3c0-0.1,0-0.2-0.1-0.3C9.1,6.1,9,6,9,5.9z"/>
<path class="st0" d="M20.7,5.9L20.7,5.9l1.1-1.1c0.1-0.1,0.1-0.1,0.2-0.2c0.1,0,0.2-0.1,0.3-0.1s0.2,0,0.3,0.1
	c0.1,0,0.2,0.1,0.2,0.2C22.9,4.9,23,4.9,23,5c0,0.1,0.1,0.2,0.1,0.3c0,0.1,0,0.2-0.1,0.3c0,0.1-0.1,0.2-0.2,0.2l-1.1,1.1
	c0,0,0,0,0,0l0,0l-0.2-0.2c0,0-0.1,0.1-0.2,0.1c-0.1,0-0.1,0-0.2,0L20.7,5.9z M20.7,5.9c-0.1,0.1-0.2,0.2-0.2,0.4c0,0.1,0,0.3,0,0.4
	c0.1,0.1,0.1,0.2,0.3,0.3c0.1,0.1,0.3,0.1,0.4,0.1L20.7,5.9z"/>
<path class="st0" d="M23.9,13.5h2.4c0.2,0,0.4-0.1,0.5-0.2c0.1-0.1,0.2-0.3,0.2-0.5c0-0.2-0.1-0.4-0.2-0.5c-0.1-0.1-0.3-0.2-0.5-0.2
	h-2.4c-0.2,0-0.4,0.1-0.5,0.2c-0.1,0.1-0.2,0.3-0.2,0.5c0,0.2,0.1,0.4,0.2,0.5C23.5,13.4,23.7,13.5,23.9,13.5z"/>
<path class="st0" d="M3.4,13.5h2.4c0.2,0,0.4-0.1,0.5-0.2c0.1-0.1,0.2-0.3,0.2-0.5c0-0.2-0.1-0.4-0.2-0.5c-0.1-0.1-0.3-0.2-0.5-0.2
	H3.4c-0.2,0-0.4,0.1-0.5,0.2c-0.1,0.1-0.2,0.3-0.2,0.5c0,0.2,0.1,0.4,0.2,0.5C3.1,13.4,3.3,13.5,3.4,13.5z"/>
<path class="st0" d="M14.8,4.5c0.2,0,0.4-0.1,0.5-0.2c0.1-0.1,0.2-0.3,0.2-0.5V1.4c0-0.2-0.1-0.4-0.2-0.5c-0.1-0.1-0.3-0.2-0.5-0.2
	c-0.2,0-0.4,0.1-0.5,0.2c-0.1,0.1-0.2,0.3-0.2,0.5v2.4c0,0.2,0.1,0.4,0.2,0.5C14.5,4.4,14.7,4.5,14.8,4.5z"/>
<path class="st0" d="M8.8,12.8L8.8,12.8c0-0.9,0.2-1.9,0.6-2.7c0.4-0.8,1-1.6,1.8-2.1C12,7.4,12.8,7,13.7,6.9s1.9-0.1,2.8,0.1
	c0.9,0.3,1.7,0.7,2.4,1.4c0.7,0.6,1.2,1.4,1.6,2.3c0.3,0.9,0.5,1.8,0.4,2.7c-0.1,0.8-0.3,1.7-0.8,2.4l-4.8-3.6l0,0
	c-0.1-0.1-0.3-0.1-0.4-0.1s-0.3,0-0.4,0.1l0,0l-4.8,3.6C9.1,14.9,8.8,13.9,8.8,12.8z M28.5,22l-7.2-5.4c0.7-1.1,1-2.3,1.1-3.6
	c0-1.3-0.3-2.7-0.9-3.8c-0.6-1.2-1.6-2.2-2.7-2.8c-1.2-0.7-2.5-1-3.8-1c-1.3,0-2.7,0.4-3.8,1C9.9,7.1,8.9,8.1,8.3,9.2
	c-0.6,1.2-1,2.5-0.9,3.8c0,1.3,0.4,2.5,1.1,3.6L1.2,22c-0.1,0.1-0.2,0.2-0.2,0.3c-0.1,0.1-0.1,0.2-0.1,0.3v20.2
	c0,0.2,0.1,0.4,0.2,0.5c0.1,0.1,0.3,0.2,0.5,0.2H28c0.2,0,0.4-0.1,0.5-0.2c0.1-0.1,0.2-0.3,0.2-0.5V22.6c0-0.1,0-0.2-0.1-0.3
	C28.6,22.2,28.5,22.1,28.5,22z M27.3,42.1H2.4V23l12.5-9.3L27.3,23L27.3,42.1z"/>
<path class="st0" d="M9.1,25.8L9.1,25.8H8.6c-0.2,0-0.4,0.1-0.5,0.2c-0.1,0.1-0.2,0.3-0.2,0.5v0.4v0c0,1.7,0.7,3.4,1.9,4.6
	c1.2,1.2,2.7,1.8,4.3,1.9v3.2c-2.1,0.1-4.1,0.8-5.8,1.9l0,0C8.2,38.6,8,38.8,8,39c0,0.2,0,0.4,0.1,0.5c0.1,0.2,0.3,0.3,0.4,0.3
	c0.2,0,0.4,0,0.5-0.1c1.7-1.1,3.7-1.7,5.8-1.7c2,0,4,0.6,5.8,1.7c0.1,0.1,0.2,0.1,0.3,0.1c0.1,0,0.2,0,0.3,0c0.1,0,0.2-0.1,0.3-0.1
	c0.1-0.1,0.1-0.1,0.2-0.2c0.1-0.1,0.1-0.2,0.1-0.3c0-0.1,0-0.2,0-0.3c0-0.1-0.1-0.2-0.1-0.3c-0.1-0.1-0.1-0.1-0.2-0.2
	c-1.7-1.1-3.7-1.8-5.8-1.9v-3.2c1.6-0.1,3.2-0.8,4.3-1.9c1.2-1.2,1.9-2.9,1.9-4.6v0v-0.4c0-0.2-0.1-0.4-0.2-0.5
	c-0.1-0.1-0.3-0.2-0.5-0.2h-0.4h0c-1.3,0-2.5,0.4-3.6,1.1c-0.9,0.6-1.7,1.5-2.2,2.5c-0.5-1-1.3-1.8-2.2-2.5
	C11.6,26.2,10.3,25.8,9.1,25.8z M10.8,30.5c-0.9-0.9-1.4-2.1-1.5-3.3c1.2,0.1,2.4,0.6,3.3,1.5c0.9,0.9,1.4,2.1,1.5,3.3
	C12.9,31.9,11.7,31.4,10.8,30.5z M17,28.7c0.9-0.9,2.1-1.4,3.3-1.5c-0.1,1.2-0.6,2.4-1.5,3.3c-0.9,0.9-2.1,1.4-3.3,1.5
	C15.6,30.8,16.2,29.6,17,28.7z"/>
</svg>
